X:1
T:Nancy
M:4/4
L:1/8
K:F
A-=B ^c|d-ed-=c A2 G2| c4 E2 ED| G2G-E D2 D2| D6|F-G| A2 A2 G2 A2|\
 f2- a2g-fe-d| c2 A2A-=B c2| d6| DD| F2 G2 A2 A2| f4d-e dc| A2 A2c-de-f|\
 d6| AA|d-ed-c A2G-A| c4 E2D-E| G2G-E D2 D2| D6||
